build/img/icon-pinterest.svg

<svg width="16" height="15" viewBox="0 0 16 15" fill="none" xmlns="http://www.w3.org/2000/svg">
<path d="M8.52464 0.0700085C6.73009 -0.176851 4.90683 0.233922 3.39151 1.22648C1.8762 2.21903 0.771177 3.72633 0.280492 5.47006C-0.210193 7.21378 -0.0534017 9.07616 0.721915 10.7133C1.49723 12.3504 2.83871 13.6518 4.49864 14.377C4.45375 13.8009 4.49496 13.2213 4.62089 12.6573C4.75964 12.028 5.59289 8.56001 5.59289 8.56001C5.42697 8.18808 5.34405 7.78448 5.34989 7.37726C5.34989 6.26351 5.99264 5.43251 6.79214 5.43251C6.93577 5.43042 7.07817 5.45928 7.20965 5.51713C7.34113 5.57498 7.45861 5.66047 7.5541 5.76778C7.6496 5.87508 7.72087 6.00169 7.76306 6.139C7.80526 6.27631 7.81739 6.42109 7.79864 6.56351C7.79864 7.23851 7.36514 8.26001 7.13864 9.21851C7.09388 9.39429 7.09104 9.57814 7.13035 9.75522C7.16966 9.93231 7.25002 10.0977 7.36496 10.238C7.4799 10.3783 7.6262 10.4897 7.79207 10.5631C7.95793 10.6366 8.13873 10.67 8.31989 10.6608C9.74339 10.6608 10.6974 8.83751 10.6974 6.68501C10.6974 5.03501 9.60464 3.79901 7.59014 3.79901C7.10817 3.78028 6.62743 3.8597 6.17709 4.03245C5.72676 4.2052 5.31623 4.46767 4.97043 4.80392C4.62463 5.14018 4.35078 5.54321 4.16551 5.98854C3.98023 6.43387 3.8874 6.9122 3.89264 7.39451C3.87117 7.9295 4.04377 8.45423 4.37864 8.87201C4.44122 8.91872 4.48691 8.98451 4.50882 9.05946C4.53074 9.1344 4.52769 9.21444 4.50014 9.28751C4.46564 9.42551 4.37864 9.75476 4.34414 9.87551C4.33697 9.91646 4.32027 9.95515 4.29541 9.98847C4.27054 10.0218 4.2382 10.0488 4.20099 10.0673C4.16378 10.0859 4.12273 10.0954 4.08116 10.0952C4.03959 10.0949 3.99865 10.085 3.96164 10.066C2.92364 9.65051 2.43464 8.50826 2.43464 7.20401C2.43464 5.06876 4.22264 2.51276 7.80014 2.51276C10.6471 2.51276 12.5401 4.59551 12.5401 6.82301C12.5401 9.75476 10.9074 11.959 8.49464 11.959C8.13403 11.9705 7.77634 11.891 7.45464 11.7276C7.13294 11.5643 6.85762 11.3224 6.65414 11.0245C6.65414 11.0245 6.22064 12.7615 6.13514 13.09C5.96061 13.6575 5.70307 14.1961 5.37089 14.6883C6.06314 14.8983 6.78239 15.0033 7.50539 15.0003C8.49058 15.001 9.46624 14.8075 10.3765 14.4307C11.2868 14.0539 12.1138 13.5012 12.8102 12.8043C13.5066 12.1075 14.0587 11.2801 14.4348 10.3695C14.811 9.45899 15.0039 8.48319 15.0024 7.49801C15.0015 5.68676 14.3452 3.937 13.1549 2.57184C11.9645 1.20668 10.3204 0.318307 8.52614 0.0707584L8.52464 0.0700085Z" fill="white"/>
</svg>

<svg xmlns="http://www.w3.org/2000/svg" width="16" height="15" fill="none" viewBox="0 0 16 15">
  <path
        d="M8.525.07a7.502 7.502 0 00-4.026 14.307 5.818 5.818 0 01.122-1.72c.139-.629.972-4.097.972-4.097a2.804 2.804 0 01-.243-1.183c0-1.113.643-1.944 1.442-1.944A1 1 0 017.8 6.563c0 .676-.434 1.697-.66 2.656a1.158 1.158 0 001.18 1.442c1.424 0 2.378-1.823 2.378-3.976 0-1.65-1.092-2.886-3.107-2.886a3.56 3.56 0 00-3.697 3.596 2.22 2.22 0 00.486 1.477.36.36 0 01.121.416c-.034.138-.121.467-.156.588a.265.265 0 01-.382.19c-1.038-.415-1.527-1.558-1.527-2.862 0-2.135 1.788-4.691 5.365-4.691 2.847 0 4.74 2.083 4.74 4.31 0 2.932-1.633 5.136-4.045 5.136a2.145 2.145 0 01-1.84-.934s-.434 1.736-.52 2.065a6.021 6.021 0 01-.764 1.598c.692.21 1.411.315 2.134.312a7.493 7.493 0 007.497-7.502A7.502 7.502 0 008.526.071L8.525.07z" />
</svg>
